X: 5
T: Wallop The Spot
R: jig
M: 6/8
L: 1/8
K: Dmaj
|: FAF DFA | BAF d2 A | ~F3 DFA | BAF AFE |
FEF DFA | BAF d2 e | fdc d2 A | BcB AFE :|
|: c2 d eAA | fAA eAA | cAc eAA | BAF AFE |
c2 d eAA | fAA efg | agf ecA | BAF AFE :|
|: DFA d3 | edc d3 | DFA d2 A | BcB AFE |
DFA d2 e | fdc d2 e | fdc d2 A | BcB AFE :|


Tune 818	Setting 13967

